X:3446
T:»Polska, mycket gammal»
N:ur C.N. Carlssons notsamling
R:Polska
B:Gutalåtar nr 262
Z:Erik Ronström 2015-02-19
O:Sanda, Gotland
N:Se även [[Musik/352|+]], [[Musik/1308|+]] och [[Musik/2592|+]]
M:3/4
L:1/16
K:G
G4 g3f g2d2|(3e2f2g2 d6 c2|B2AB c2B2 A2G2|FGAB AGFE D4|
G4 g3f g2d2|(3e2f2g2 d6 c2|B2AB c2B2 A2G2|FGAB A4 G4:|
|:G2B2 B2GB A4-|A2c2 c2Ac B4-|B2d2 d2Bd ^c4-|
c2e2 e2^ce e4|d2ef g2d2 B2G2|BAGF G4 G,4:|
(:musicend:)
(:music:)
